public/sun.svg

<svg fill="none" height="46" viewBox="0 0 46 46" width="46" xmlns="http://www.w3.org/2000/svg"><circle cx="23" cy="23" fill="#030712" r="23"/><path d="m35.675 33.635-2.115 2.115-2.7-2.685 2.13-2.13m-9.99-16.935c4.965 0 9 4.035 9 9s-4.035 9-9 9-9-4.035-9-9c0-4.98 4.035-9 9-9zm-12 10.5h-4.5v-3h4.5m4.14 11.565-2.7 2.685-2.115-2.115 2.685-2.7m-2.685-18.435 2.115-2.1 2.7 2.685-2.13 2.13m8.49-8.715h3v4.5h-3m9.36 2.085 2.7-2.685 2.115 2.1-2.685 2.715zm8.64 11.415h-4.5v-3h4.5m-18 13.5h3v4.5h-3" fill="#d1d5db"/></svg>

<svg width="46" height="46" viewBox="0 0 46 46" fill="none" xmlns="http://www.w3.org/2000/svg">
<circle cx="23" cy="23" r="23" fill="#030712"/>
<path d="M35.675 33.635L33.56 35.75L30.86 33.065L32.99 30.935M23 14C27.965 14 32 18.035 32 23C32 27.965 27.965 32 23 32C18.035 32 14 27.965 14 23C14 18.02 18.035 14 23 14ZM11 24.5H6.5V21.5H11M15.14 33.065L12.44 35.75L10.325 33.635L13.01 30.935M10.325 12.5L12.44 10.4L15.14 13.085L13.01 15.215M21.5 6.5H24.5V11H21.5M30.86 13.085L33.56 10.4L35.675 12.5L32.99 15.215L30.86 13.085ZM39.5 24.5H35V21.5H39.5M21.5 35H24.5V39.5H21.5" fill="#D1D5DB"/>
</svg>
